img/logo.svg

<svg width="180" height="66" viewBox="0 0 180 66" fill="none" xmlns="http://www.w3.org/2000/svg">
<path d="M65.7889 49.1765C52.3514 49.1765 41.416 38.2599 41.416 24.8456C41.4013 11.4166 52.3367 0.5 65.7889 0.5C73.4422 0.5 80.4921 3.98214 85.1577 10.0502L80.4774 13.6205C76.9451 9.0217 71.5877 6.37703 65.7889 6.37703C55.5894 6.37703 47.3032 14.6637 47.3032 24.8309C47.3032 35.0129 55.6041 43.2848 65.7889 43.2848C71.5877 43.2848 76.9451 40.6401 80.4774 36.0414L85.1577 39.6117C80.4921 45.6944 73.4422 49.1765 65.7889 49.1765Z" fill="#325285"/>
<path d="M32.7915 41.6247V1.76367H26.9043V41.6247H14.1881C9.61079 41.6247 5.88716 37.9074 5.88716 33.3233V1.76367H0V33.338C0 41.1545 6.37285 47.5017 14.1881 47.5017H36.6329V41.6247H32.7915Z" fill="#325285"/>
<path d="M124.911 47.4869H119.024V16.8675C119.024 11.0787 114.314 6.37703 108.515 6.37703C102.716 6.37703 98.0063 11.0787 98.0063 16.8675V47.4869H92.1192V16.8675C92.1044 7.84629 99.4634 0.5 108.515 0.5C117.566 0.5 124.911 7.84629 124.911 16.8675V47.4869Z" fill="#325285"/>
<path d="M155.627 49.1765C142.19 49.1765 131.254 38.2599 131.254 24.8456C131.24 11.4166 142.175 0.5 155.627 0.5C169.079 0.5 180 11.4166 180 24.8309C180 38.2599 169.065 49.1765 155.627 49.1765ZM155.627 6.37703C145.428 6.37703 137.142 14.6637 137.142 24.8309C137.142 35.0129 145.442 43.2848 155.627 43.2848C165.812 43.2848 174.113 34.9982 174.113 24.8309C174.113 14.6637 165.827 6.37703 155.627 6.37703Z" fill="#325285"/>
<path d="M5.29826 65.3826L2.22222 57.1988H2.16335C2.22222 57.8747 2.25165 58.7268 2.25165 59.7112V65.3679H1.17725V56.0381H2.91396L5.79867 63.6782H5.85754L8.7864 56.0381H10.5084V65.3679H9.34568V59.6378C9.34568 59.006 9.37512 58.1832 9.43399 57.2135H9.37512L6.25492 65.3826H5.29826V65.3826Z" fill="#325285"/>
<path d="M21.6794 65.3825H16.4546V56.0527H21.6794V57.0812H17.632V59.9903H21.444V61.0041H17.632V64.3394H21.6794V65.3825Z" fill="#325285"/>
<path d="M29.6271 60.578L26.0065 56.0527H27.3164L30.8928 60.5634V56.0527H32.0261V60.5634L35.6026 56.0527H36.9125L33.2918 60.5634L37.0302 65.3678H35.6761L32.0261 60.6368V65.3678H30.8928V60.6368L27.2281 65.3678H25.874L29.6271 60.578Z" fill="#325285"/>
<path d="M47.6859 58.8002C47.6859 59.7553 47.3621 60.4899 46.7145 60.9894C46.0669 61.5037 45.1397 61.7535 43.9623 61.7535H42.8879V65.3825H41.7104V56.0527H44.1831C46.5232 56.0527 47.6859 56.9637 47.6859 58.8002ZM42.8879 60.7397H43.8298C44.7571 60.7397 45.4341 60.5927 45.8462 60.2842C46.2583 59.9903 46.4643 59.5055 46.4643 58.8443C46.4643 58.2419 46.273 57.8012 45.8903 57.4926C45.5077 57.1988 44.9042 57.0518 44.08 57.0518H42.8879V60.7397V60.7397Z" fill="#325285"/>
<path d="M58.2532 65.3825H53.0283V56.0527H58.2532V57.0812H54.2058V59.9903H58.0177V61.0041H54.2058V64.3394H58.2532V65.3825Z" fill="#325285"/>
<path d="M68.9829 56.0527V57.0959H64.8913V65.3825H63.7139V56.0527H68.9829Z" fill="#325285"/>
<path d="M73.9868 56.0527H75.0907V61.1804C75.0907 61.5478 75.0759 62.0179 75.0612 62.6203C75.0465 63.2227 75.0171 63.6047 75.0023 63.781H75.0612L80.1978 56.0674H81.5077V65.3972H80.4038V60.2989C80.4038 59.8581 80.4185 59.3439 80.448 58.7562C80.4774 58.1685 80.4921 57.7865 80.5068 57.6101H80.448L75.2967 65.3678H73.9868V56.0527Z" fill="#325285"/>
<path d="M95.5779 60.6955C95.5779 62.1942 95.1952 63.3696 94.4446 64.2218C93.694 65.0739 92.6343 65.5 91.2655 65.5C89.8968 65.5 88.8224 65.0739 88.0718 64.2365C87.3211 63.399 86.9385 62.2089 86.9385 60.6809C86.9385 59.1675 87.3064 57.9921 88.057 57.1546C88.8077 56.3172 89.8821 55.9058 91.2655 55.9058C92.6196 55.9058 93.6793 56.3319 94.4299 57.184C95.2099 58.0215 95.5779 59.1969 95.5779 60.6955ZM88.1895 60.6955C88.1895 61.9297 88.4544 62.87 88.9695 63.5165C89.4994 64.163 90.2647 64.4862 91.2655 64.4862C92.2664 64.4862 93.0317 64.163 93.5468 63.5312C94.0619 62.8994 94.3269 61.9444 94.3269 60.6955C94.3269 59.4467 94.0619 58.5063 93.5468 57.8746C93.0317 57.2428 92.2664 56.9342 91.2655 56.9342C90.25 56.9342 89.4847 57.2575 88.9548 57.8893C88.4544 58.5357 88.1895 59.4761 88.1895 60.6955Z" fill="#325285"/>
<path d="M108.191 65.3825H107.014V61.0335H102.216V65.3825H101.038V56.0527H102.216V59.9903H107.014V56.0527H108.191V65.3825Z" fill="#325285"/>
<path d="M120.127 58.8002C120.127 59.7553 119.804 60.4899 119.156 60.9894C118.508 61.5037 117.581 61.7535 116.404 61.7535H115.329V65.3825H114.152V56.0527H116.624C118.965 56.0527 120.127 56.9637 120.127 58.8002ZM115.329 60.7397H116.271C117.198 60.7397 117.875 60.5927 118.288 60.2842C118.7 59.9903 118.92 59.5055 118.92 58.8443C118.92 58.2419 118.729 57.8012 118.332 57.4926C117.949 57.1988 117.346 57.0518 116.521 57.0518H115.329V60.7397Z" fill="#325285"/>
<path d="M130.695 65.3825H125.47V56.0527H130.695V57.0812H126.647V59.9903H130.459V61.0041H126.647V64.3394H130.695V65.3825Z" fill="#325285"/>
<path d="M140.158 56.9488C139.158 56.9488 138.363 57.2868 137.789 57.9626C137.215 58.6385 136.92 59.5494 136.92 60.7248C136.92 61.9296 137.2 62.8553 137.759 63.5164C138.319 64.1629 139.113 64.5008 140.144 64.5008C140.806 64.5008 141.557 64.3833 142.381 64.1335V65.162C141.983 65.3089 141.601 65.4118 141.233 65.4559C140.865 65.4999 140.438 65.5293 139.967 65.5293C138.598 65.5293 137.539 65.1179 136.788 64.2804C136.037 63.443 135.669 62.2676 135.669 60.7248C135.669 59.7698 135.846 58.9177 136.199 58.1977C136.553 57.4778 137.068 56.9195 137.745 56.5228C138.422 56.1261 139.231 55.9351 140.144 55.9351C141.13 55.9351 141.998 56.1114 142.719 56.4787L142.248 57.4778C141.527 57.1252 140.821 56.9488 140.158 56.9488Z" fill="#325285"/>
<path d="M148.43 65.5001C147.944 65.5001 147.517 65.4413 147.164 65.3091V64.1925C147.547 64.3688 147.959 64.4569 148.4 64.4569C148.857 64.4569 149.225 64.3541 149.504 64.1337C149.784 63.9133 150.049 63.5313 150.314 62.973L146.723 56.0381H148.018L150.696 61.2246C150.8 61.4303 150.888 61.6507 150.976 61.8857H151.035L151.079 61.7388L151.27 61.2099L153.508 56.0381H154.759L151.771 62.7085C151.418 63.5019 151.094 64.0749 150.8 64.4422C150.505 64.8096 150.181 65.074 149.813 65.2356C149.401 65.4267 148.945 65.5001 148.43 65.5001Z" fill="#325285"/>
<path d="M165.37 58.8002C165.37 59.7553 165.046 60.4899 164.399 60.9894C163.751 61.5037 162.824 61.7535 161.646 61.7535H160.572V65.3825H159.395V56.0527H161.867C164.207 56.0527 165.37 56.9637 165.37 58.8002ZM160.572 60.7397H161.514C162.441 60.7397 163.118 60.5927 163.53 60.2842C163.942 59.9903 164.163 59.5055 164.163 58.8443C164.163 58.2419 163.972 57.8012 163.574 57.4926C163.192 57.1988 162.588 57.0518 161.764 57.0518H160.572V60.7397Z" fill="#325285"/>
<path d="M174.716 56.9488C173.715 56.9488 172.92 57.2868 172.346 57.9626C171.772 58.6385 171.478 59.5494 171.478 60.7248C171.478 61.9296 171.758 62.8553 172.317 63.5164C172.876 64.1629 173.671 64.5008 174.701 64.5008C175.364 64.5008 176.114 64.3833 176.938 64.1335V65.162C176.541 65.3089 176.158 65.4118 175.79 65.4559C175.422 65.4999 174.996 65.5293 174.525 65.5293C173.156 65.5293 172.096 65.1179 171.346 64.2804C170.595 63.443 170.227 62.2676 170.227 60.7248C170.227 59.7698 170.404 58.9177 170.757 58.1977C171.11 57.4778 171.625 56.9195 172.302 56.5228C172.979 56.1261 173.789 55.9351 174.701 55.9351C175.687 55.9351 176.556 56.1114 177.277 56.4787L176.806 57.4778C176.085 57.1252 175.378 56.9488 174.716 56.9488Z" fill="#325285"/>
</svg>

<svg width="180" height="66" fill="none" xmlns="http://www.w3.org/2000/svg"><path d="M65.789 49.176c-13.438 0-24.373-10.916-24.373-24.33C41.401 11.416 52.336.5 65.789.5c7.653 0 14.703 3.482 19.369 9.55l-4.68 3.57c-3.533-4.598-8.89-7.243-14.69-7.243-10.199 0-18.485 8.287-18.485 18.454 0 10.182 8.301 18.454 18.486 18.454 5.799 0 11.156-2.645 14.688-7.244l4.68 3.57c-4.665 6.083-11.715 9.566-19.368 9.566zm-32.998-7.551V1.764h-5.887v39.86H14.188c-4.577 0-8.3-3.717-8.3-8.3V1.763H0v31.574c0 7.816 6.373 14.164 14.188 14.164h22.445v-5.877H32.79zm92.12 5.862h-5.887v-30.62c0-5.788-4.71-10.49-10.509-10.49s-10.509 4.702-10.509 10.49v30.62H92.12v-30.62C92.104 7.848 99.463.5 108.515.5c9.051 0 16.396 7.346 16.396 16.367v30.62zm30.716 1.689c-13.437 0-24.373-10.916-24.373-24.33C131.24 11.416 142.175.5 155.627.5 169.079.5 180 11.417 180 24.83c0 13.43-10.935 24.346-24.373 24.346zm0-42.799c-10.199 0-18.485 8.287-18.485 18.454 0 10.182 8.3 18.454 18.485 18.454 10.185 0 18.486-8.287 18.486-18.454s-8.286-18.454-18.486-18.454zM5.298 65.383l-3.076-8.184h-.059c.06.676.089 1.528.089 2.512v5.657H1.177v-9.33h1.737l2.885 7.64h.059l2.928-7.64h1.722v9.33H9.346v-5.73c0-.632.03-1.455.088-2.424h-.059l-3.12 8.169h-.957zm16.382-.001h-5.225v-9.33h5.224v1.03h-4.047v2.908h3.812v1.014h-3.812v3.335h4.047v1.043zm7.947-4.804l-3.62-4.525h1.31l3.576 4.51v-4.51h1.133v4.51l3.577-4.51h1.31l-3.621 4.51 3.738 4.805h-1.354l-3.65-4.731v4.73h-1.133v-4.73l-3.665 4.73h-1.354l3.753-4.789zM47.686 58.8c0 .955-.324 1.69-.971 2.19-.648.514-1.575.764-2.753.764h-1.074v3.628H41.71v-9.33h2.473c2.34 0 3.503.912 3.503 2.748zm-4.798 1.94h.942c.927 0 1.604-.147 2.016-.456.412-.294.618-.779.618-1.44 0-.602-.191-1.043-.574-1.351-.382-.294-.986-.441-1.81-.441h-1.192v3.688zm15.365 4.642h-5.225v-9.33h5.225v1.03h-4.047v2.908h3.812v1.014h-3.812v3.335h4.047v1.043zm10.73-9.329v1.043H64.89v8.286h-1.177v-9.33h5.269zm5.004 0h1.104v5.127c0 .368-.015.838-.03 1.44-.015.603-.044.985-.059 1.161h.06l5.136-7.714h1.31v9.33h-1.104V60.3c0-.44.014-.955.044-1.543.03-.587.044-.97.059-1.146h-.059l-5.151 7.758h-1.31v-9.315zm21.591 4.643c0 1.498-.383 2.674-1.133 3.526-.751.852-1.81 1.278-3.18 1.278-1.368 0-2.443-.426-3.193-1.263-.75-.838-1.133-2.028-1.133-3.556 0-1.514.367-2.689 1.118-3.526.75-.838 1.825-1.25 3.209-1.25 1.354 0 2.413.427 3.164 1.279.78.838 1.148 2.013 1.148 3.512zm-7.389 0c0 1.234.265 2.174.78 2.82.53.647 1.296.97 2.297.97 1 0 1.766-.323 2.28-.955.516-.632.78-1.587.78-2.835 0-1.25-.264-2.19-.78-2.821-.514-.632-1.28-.94-2.28-.94-1.016 0-1.781.322-2.311.954-.5.647-.766 1.587-.766 2.806zm20.002 4.686h-1.177v-4.349h-4.798v4.35h-1.178v-9.33h1.178v3.937h4.798v-3.937h1.177v9.33zm11.936-6.582c0 .955-.323 1.69-.971 2.19-.648.514-1.575.764-2.752.764h-1.075v3.628h-1.177v-9.33h2.472c2.341 0 3.503.912 3.503 2.748zm-4.798 1.94h.942c.927 0 1.604-.147 2.017-.456.412-.294.632-.779.632-1.44 0-.602-.191-1.043-.588-1.351-.383-.294-.986-.441-1.811-.441h-1.192v3.688zm15.366 4.642h-5.225v-9.33h5.225v1.03h-4.048v2.908h3.812v1.014h-3.812v3.335h4.048v1.043zm9.463-8.433c-1 0-1.795.338-2.369 1.014-.574.675-.869 1.586-.869 2.762 0 1.205.28 2.13.839 2.791.56.647 1.354.985 2.385.985.662 0 1.413-.118 2.237-.368v1.029a5.08 5.08 0 01-1.148.294c-.368.044-.795.073-1.266.073-1.369 0-2.428-.411-3.179-1.249-.751-.837-1.119-2.012-1.119-3.555 0-.955.177-1.807.53-2.527a3.879 3.879 0 011.546-1.675c.677-.397 1.486-.588 2.399-.588.986 0 1.854.176 2.575.544l-.471.999c-.721-.353-1.427-.53-2.09-.53zm8.272 8.551c-.486 0-.913-.059-1.266-.19v-1.118a2.92 2.92 0 001.236.265c.457 0 .825-.103 1.104-.323.28-.22.545-.603.81-1.161l-3.591-6.935h1.295l2.678 5.187c.104.205.192.426.28.66h.059l.044-.146.191-.53 2.238-5.17h1.251l-2.988 6.67c-.353.793-.677 1.366-.971 1.733-.295.368-.619.632-.987.794-.412.19-.868.264-1.383.264zm16.94-6.7c0 .955-.324 1.69-.971 2.19-.648.514-1.575.764-2.753.764h-1.074v3.628h-1.177v-9.33h2.472c2.34 0 3.503.912 3.503 2.748zm-4.798 1.94h.942c.927 0 1.604-.147 2.016-.456.412-.294.633-.779.633-1.44 0-.602-.191-1.043-.589-1.351-.382-.294-.986-.441-1.81-.441h-1.192v3.688zm14.144-3.791c-1.001 0-1.796.338-2.37 1.014-.574.675-.868 1.586-.868 2.762 0 1.205.28 2.13.839 2.791.559.647 1.354.985 2.384.985.663 0 1.413-.118 2.237-.368v1.029c-.397.147-.78.25-1.148.294-.368.044-.794.073-1.265.073-1.369 0-2.429-.411-3.179-1.249-.751-.837-1.119-2.012-1.119-3.555 0-.955.177-1.807.53-2.527a3.87 3.87 0 011.545-1.675c.677-.397 1.487-.588 2.399-.588.986 0 1.855.176 2.576.544l-.471.999c-.721-.353-1.428-.53-2.09-.53z" fill="#325285"/></svg>
